Actions_and_Presets/lut/FadedWarm.3DL
#Created by: Adobe Photoshop Export Color Lookup Plugin
#Description: Faded Warm - Unmesh Dinda
0 33 66 99 132 165 198 231 264 297 330 363 396 429 462 495 528 561 594 627 660 693 726 759 792 825 858 891 924 957 990 1023
174 177 353
174 177 417
174 177 481
179 179 547
185 180 613
192 182 696
199 183 812
209 181 932
218 181 1048
226 187 1162
235 190 1270
245 190 1368
256 189 1463
269 186 1553
281 180 1640
294 172 1726
305 167 1807
314 166 1885
323 162 1959
333 157 2032
342 156 2106
351 156 2182
360 156 2259
367 156 2337
377 156 2418
387 156 2500
396 156 2585
403 156 2672
411 156 2760
419 156 2849
427 156 2943
435 156 3038
189 264 355
190 266 421
190 266 486
193 266 551
199 268 619
202 269 708
209 270 824
216 270 943
226 269 1058
233 271 1168
243 274 1275
255 273 1375
266 272 1469
279 268 1559
290 265 1643
300 260 1726
310 254 1807
318 252 1883
328 250 1960
338 247 2034
347 244 2108
355 244 2183
364 241 2260
372 239 2339
382 237 2419
393 236 2501
400 237 2586
407 237 2673
416 237 2761
424 237 2851
434 238 2941
442 238 3035
204 354 357
205 355 423
207 358 490
210 358 557
213 359 624
216 359 715
220 360 835
227 360 953
234 361 1067
241 361 1176
250 361 1280
263 360 1380
275 358 1475
288 353 1564
299 350 1648
308 347 1729
316 344 1807
324 341 1883
333 339 1958
343 338 2034
352 336 2109
360 335 2185
368 332 2262
378 327 2340
388 324 2420
398 320 2502
406 320 2587
412 320 2675
420 320 2762
428 321 2852
439 321 2942
450 321 3033
217 447 361
220 448 425
222 450 492
225 452 562
228 453 629
232 452 720
236 452 839
242 451 957
250 452 1071
259 453 1179
266 453 1283
274 452 1381
285 450 1475
294 446 1563
304 444 1646
311 443 1726
320 441 1805
329 440 1882
337 437 1957
345 435 2033
356 434 2109
365 433 2185
373 432 2262
382 429 2340
390 424 2420
400 421 2502
409 413 2588
416 412 2676
424 409 2765
432 409 2854
443 407 2945
454 407 3036
230 542 364
233 543 429
236 544 494
239 546 564
242 549 634
247 548 724
252 547 842
258 546 960
264 546 1073
275 547 1181
284 548 1285
290 547 1382
296 545 1475
304 541 1562
311 539 1645
317 539 1724
324 540 1802
333 539 1880
342 537 1956
350 535 2031
359 533 2107
370 533 2185
379 531 2262
386 530 2340
395 527 2420
403 523 2502
411 516 2588
421 507 2677
429 504 2766
437 502 2857
448 499 2948
459 497 3038
241 716 355
244 713 423
247 714 489
250 718 560
254 721 631
258 719 716
263 717 834
268 718 952
274 716 1065
282 714 1171
291 714 1276
297 712 1375
304 709 1469
311 706 1558
319 700 1642
325 699 1723
332 698 1801
340 696 1878
349 694 1955
358 691 2032
366 687 2108
375 685 2185
384 679 2262
392 674 2340
401 669 2420
410 662 2502
418 654 2587
427 641 2675
437 637 2765
446 633 2857
454 634 2947
465 630 3038
254 889 346
256 887 415
259 885 483
262 887 555
265 891 627
270 888 708
275 887 824
279 887 943
284 887 1058
292 886 1164
299 883 1266
305 881 1367
312 880 1462
320 877 1552
327 875 1638
333 873 1720
340 870 1800
348 868 1877
356 867 1954
365 865 2031
374 862 2107
383 860 2184
391 855 2261
399 847 2339
407 841 2419
417 836 2502
426 828 2586
434 820 2673
444 818 2764
453 816 2856
462 815 2947
471 816 3037
271 1056 340
271 1057 410
274 1055 480
277 1053 550
280 1055 622
283 1053 697
288 1051 814
293 1052 928
298 1052 1044
303 1050 1156
310 1047 1259
316 1045 1358
323 1044 1454
331 1044 1545
338 1042 1633
343 1040 1718
349 1038 1797
356 1036 1874
364 1035 1952
371 1035 2030
381 1031 2105
390 1027 2181
399 1025 2259
408 1020 2338
415 1017 2418
424 1013 2500
433 1005 2585
442 997 2673
451 997 2763
460 996 2856
470 988 2948
479 987 3039
287 1218 336
288 1218 406
289 1218 477
292 1217 548
295 1215 619
298 1213 691
301 1211 807
306 1212 921
311 1212 1032
315 1209 1145
321 1207 1252
327 1205 1351
334 1204 1446
342 1204 1538
349 1204 1626
354 1202 1712
360 1200 1794
366 1198 1872
373 1198 1950
380 1198 2028
388 1196 2104
398 1191 2180
407 1187 2257
417 1185 2336
425 1184 2416
431 1182 2498
440 1176 2583
450 1168 2672
460 1167 2763
468 1168 2855
478 1162 2947
488 1154 3039
299 1373 336
301 1368 407
302 1368 479
307 1371 551
310 1370 623
312 1370 696
315 1369 812
317 1366 925
322 1366 1036
327 1364 1142
332 1362 1249
339 1360 1346
345 1358 1441
352 1359 1532
360 1359 1620
366 1356 1704
371 1356 1788
376 1356 1869
385 1355 1948
394 1356 2027
401 1353 2104
408 1348 2180
416 1344 2257
424 1340 2336
433 1340 2415
441 1339 2496
450 1337 2581
459 1332 2670
469 1329 2762
478 1329 2855
489 1327 2947
499 1321 3039
312 1519 336
314 1516 408
316 1512 481
321 1514 553
325 1517 626
327 1517 700
330 1516 816
332 1514 930
334 1514 1040
339 1512 1146
344 1510 1248
351 1508 1345
357 1506 1438
364 1507 1528
369 1505 1614
376 1503 1698
384 1503 1782
389 1503 1864
395 1503 1944
406 1503 2024
414 1503 2101
420 1498 2178
427 1495 2256
434 1490 2335
443 1489 2415
452 1489 2495
460 1488 2580
469 1486 2668
479 1484 2760
489 1482 2854
499 1481 2946
509 1479 3038
325 1656 336
328 1657 409
331 1654 482
334 1654 556
338 1656 630
340 1654 705
343 1653 820
348 1651 934
350 1650 1044
354 1653 1150
359 1652 1251
364 1650 1349
371 1648 1440
378 1649 1528
382 1647 1613
385 1643 1694
394 1642 1778
405 1643 1862
410 1642 1941
416 1640 2020
425 1641 2097
432 1640 2174
439 1639 2252
446 1638 2332
455 1635 2413
465 1634 2495
474 1633 2580
483 1631 2668
491 1629 2760
501 1627 2854
510 1627 2946
520 1626 3038
339 1789 336
344 1788 410
347 1789 485
350 1789 559
354 1789 633
356 1788 709
358 1787 824
362 1785 937
367 1784 1047
371 1786 1153
375 1788 1255
381 1786 1352
385 1784 1443
392 1784 1530
397 1783 1613
400 1779 1693
405 1777 1775
417 1778 1858
426 1779 1939
431 1777 2017
437 1773 2093
444 1774 2170
453 1775 2250
461 1776 2330
468 1774 2411
479 1772 2494
488 1771 2580
497 1769 2669
506 1769 2760
515 1767 2854
525 1766 2947
534 1766 3039
358 1919 337
363 1917 411
367 1916 486
369 1917 562
372 1917 637
376 1917 714
378 1916 829
380 1917 942
384 1916 1051
388 1916 1157
393 1917 1259
400 1918 1355
404 1916 1446
406 1914 1533
412 1913 1615
417 1911 1694
423 1909 1775
431 1909 1856
441 1911 1937
448 1913 2016
453 1908 2092
459 1903 2167
470 1905 2247
481 1907 2330
487 1906 2411
494 1904 2494
504 1904 2581
513 1903 2670
522 1905 2760
531 1906 2853
542 1902 2948
552 1900 3042
377 2045 343
381 2043 412
386 2041 488
388 2041 565
391 2041 641
394 2041 718
397 2041 833
399 2041 946
401 2041 1055
405 2042 1161
410 2042 1262
417 2042 1358
423 2042 1449
425 2040 1535
429 2040 1618
434 2038 1696
442 2036 1773
450 2036 1854
457 2036 1932
464 2038 2012
471 2039 2091
477 2033 2166
485 2030 2244
497 2032 2327
508 2033 2412
513 2032 2494
521 2030 2581
530 2031 2671
540 2032 2764
549 2034 2856
559 2035 2950
576 2031 3045
398 2168 349
401 2166 413
406 2164 490
408 2164 567
410 2164 645
412 2162 723
415 2162 838
417 2162 950
419 2162 1059
423 2162 1164
428 2162 1265
433 2163 1361
439 2162 1452
445 2160 1538
449 2160 1620
455 2162 1699
462 2161 1775
470 2159 1850
477 2158 1928
481 2156 2005
488 2159 2085
496 2160 2164
502 2155 2242
511 2152 2323
524 2155 2408
534 2156 2494
542 2154 2581
550 2153 2671
559 2153 2766
574 2154 2861
586 2159 2954
600 2159 3048
420 2287 356
422 2286 414
426 2285 492
428 2286 570
430 2286 649
432 2284 728
435 2282 842
439 2282 955
442 2282 1063
446 2283 1168
448 2282 1269
453 2282 1364
459 2282 1455
465 2280 1541
470 2279 1623
476 2282 1701
481 2283 1778
490 2281 1852
498 2280 1926
502 2278 2002
511 2278 2081
519 2280 2162
524 2280 2244
531 2276 2324
543 2276 2407
556 2278 2494
564 2277 2581
576 2275 2670
592 2276 2765
606 2276 2863
622 2278 2959
634 2282 3052
445 2404 363
445 2404 417
447 2404 494
450 2406 573
452 2406 652
454 2405 732
457 2403 847
464 2403 959
469 2403 1068
473 2403 1172
476 2403 1272
476 2401 1368
481 2401 1458
489 2401 1544
494 2400 1625
498 2400 1704
504 2401 1780
509 2401 1854
518 2400 1928
525 2400 2001
534 2400 2080
547 2400 2162
551 2401 2245
554 2400 2329
567 2399 2411
586 2400 2496
597 2399 2582
607 2397 2670
625 2399 2765
643 2400 2862
662 2400 2961
678 2402 3057
471 2524 371
473 2523 426
474 2523 496
476 2525 576
479 2527 657
480 2525 737
482 2523 852
488 2523 964
495 2522 1072
500 2522 1176
504 2523 1276
505 2523 1371
507 2522 1461
515 2522 1546
521 2521 1628
526 2521 1706
531 2521 1782
537 2521 1856
543 2521 1929
551 2521 2002
557 2521 2079
572 2521 2161
589 2521 2245
593 2522 2330
604 2522 2417
623 2522 2501
639 2521 2587
647 2519 2675
661 2520 2767
680 2522 2864
697 2523 2965
716 2523 3063
499 2645 380
503 2643 436
506 2642 498
508 2644 580
510 2646 661
511 2644 742
512 2642 857
514 2642 968
520 2642 1076
528 2640 1180
532 2640 1280
535 2645 1375
538 2645 1465
544 2645 1549
550 2644 1631
556 2642 1709
562 2642 1785
570 2642 1859
579 2642 1931
588 2642 2003
596 2642 2079
603 2642 2158
623 2642 2243
640 2642 2330
649 2642 2418
662 2642 2508
679 2642 2594
694 2641 2682
705 2641 2773
719 2642 2868
733 2644 2970
749 2645 3070
529 2767 389
534 2767 445
538 2764 503
541 2764 583
543 2766 665
544 2766 748
545 2764 862
548 2764 973
552 2764 1081
559 2762 1184
565 2760 1284
567 2762 1378
572 2765 1468
580 2766 1553
585 2767 1634
592 2765 1712
607 2764 1788
618 2764 1861
627 2762 1937
635 2762 2009
646 2762 2087
652 2762 2166
665 2764 2246
685 2764 2334
696 2765 2421
708 2765 2512
722 2764 2604
738 2764 2692
755 2766 2786
766 2766 2880
778 2765 2976
792 2767 3078
562 2889 399
567 2889 456
572 2888 515
578 2886 586
582 2886 670
583 2888 753
584 2888 867
591 2888 978
597 2888 1085
605 2886 1189
613 2884 1288
616 2882 1382
622 2883 1471
630 2885 1556
635 2886 1637
636 2888 1715
649 2888 1790
667 2888 1864
677 2885 1939
683 2881 2017
693 2881 2095
704 2881 2179
717 2884 2259
734 2887 2341
745 2888 2427
754 2890 2515
767 2888 2609
782 2887 2704
800 2890 2799
817 2892 2896
828 2889 2990
840 2887 3087
615 3011 414
621 3010 473
627 3010 532
632 3009 593
638 3007 674
640 3007 759
641 3009 872
646 3010 983
652 3009 1090
660 3008 1193
668 3006 1292
673 3004 1386
676 3003 1475
683 3004 1559
693 3007 1640
697 3009 1718
701 3010 1795
718 3010 1870
728 3010 1947
734 3006 2025
745 3005 2107
756 3004 2191
767 3004 2273
784 3008 2354
798 3009 2440
806 3011 2528
817 3012 2618
831 3010 2715
849 3013 2812
868 3016 2909
879 3015 3004
890 3012 3098
673 3131 432
679 3129 490
685 3128 550
691 3128 611
696 3127 679
699 3125 764
702 3125 878
705 3126 988
710 3127 1095
716 3127 1198
723 3126 1296
732 3124 1390
736 3123 1478
740 3122 1562
748 3124 1643
759 3128 1720
766 3129 1798
774 3129 1876
783 3128 1954
786 3128 2036
796 3127 2119
810 3127 2205
821 3127 2287
832 3127 2369
846 3128 2454
859 3128 2543
870 3129 2633
881 3130 2726
899 3133 2823
918 3136 2922
929 3136 3017
940 3135 3111
734 3247 450
742 3245 510
748 3244 570
756 3246 632
760 3245 694
757 3243 770
761 3241 883
767 3243 993
770 3244 1100
774 3245 1203
781 3245 1301
790 3245 1394
798 3243 1482
803 3242 1566
809 3243 1650
819 3246 1729
828 3245 1811
837 3244 1890
846 3246 1970
851 3246 2052
857 3247 2135
870 3247 2221
878 3247 2306
889 3247 2389
906 3247 2472
919 3246 2561
930 3249 2653
941 3250 2745
955 3249 2838
973 3253 2938
991 3256 3036
1002 3256 3130
796 3357 469
804 3356 529
812 3354 590
821 3357 653
827 3359 716
819 3355 776
817 3353 888
826 3355 998
831 3356 1105
835 3357 1207
840 3359 1305
848 3360 1398
856 3360 1486
865 3358 1569
872 3358 1653
881 3359 1738
889 3358 1821
897 3355 1905
907 3355 1988
918 3359 2072
926 3360 2155
934 3361 2239
941 3361 2324
947 3361 2410
963 3361 2494
981 3360 2580
992 3363 2672
1003 3366 2767
1015 3364 2860
1029 3363 2954
1049 3367 3054
1068 3371 3151
870 3468 492
872 3467 550
880 3466 611
887 3466 674
894 3468 737
892 3465 800
887 3462 894
894 3463 1004
901 3464 1110
906 3464 1212
910 3465 1311
919 3467 1405
924 3467 1499
929 3466 1588
938 3467 1676
948 3468 1764
955 3467 1849
963 3464 1933
973 3464 2015
984 3467 2098
990 3468 2178
997 3469 2261
1008 3469 2344
1015 3469 2431
1026 3470 2519
1043 3470 2605
1053 3470 2695
1064 3473 2789
1078 3473 2884
1091 3471 2978
1102 3472 3073
1122 3476 3171
946 3572 514
947 3572 573
948 3571 632
954 3571 695
959 3571 758
959 3568 822
960 3565 903
965 3565 1010
971 3565 1115
977 3565 1217
983 3565 1315
991 3566 1411
996 3567 1506
997 3567 1604
1003 3567 1697
1013 3570 1791
1022 3569 1879
1030 3566 1964
1039 3566 2046
1050 3569 2127
1056 3570 2206
1059 3569 2284
1069 3569 2367
1082 3569 2453
1094 3571 2541
1106 3573 2632
1116 3573 2721
1123 3573 2813
1138 3573 2908
1152 3572 3004
1163 3573 3098
1174 3575 3190
1014 3668 535
1017 3667 594
1017 3667 654
1018 3666 716
